X: 9247
T: Dan Murphy's
R: slide
M: 12/8
K: Dmajor
|:DFA ded c2B G3|c2B GFG B2A F2E|DFA ded c2B G2F|EFG ABc d3d3:|
|:f2d A2d FGA f3|g2e cBA G2F E3|f2d A2d FGA d2F EFG ABc d3d3:|

